icons/modern/cold-face.svg

<svg width="32" height="32" viewBox="0 0 32 32" fill="none" xmlns="http://www.w3.org/2000/svg">
<g filter="url(#filter0_i_31_131)">
<path fill-rule="evenodd" clip-rule="evenodd" d="M29.9978 15.9989C29.9978 19.8639 28.8321 23.363 26.5 25.8962V28.5L26 30H24.5L23.2741 28.3655C21.2888 29.4074 18.8638 29.9978 15.9989 29.9978C14.915 29.9978 13.8941 29.9133 12.9362 29.7518L12 31L10.5 31.5L10 31L9 30V28.5061C8.61906 28.3181 8.25368 28.1138 7.90385 27.8942L7.5 28.5L6 29L5 27.5V25.3192C2.99982 22.844 2 19.5783 2 15.9989C2 8.26751 6.66443 2 15.9989 2C25.3333 2 29.9978 8.26751 29.9978 15.9989Z" fill="url(#paint0_radial_31_131)"/>
</g>
<circle cx="9" cy="15" r="5" fill="url(#paint1_radial_31_131)"/>
<circle cx="19.5" cy="15.5" r="4.5" fill="url(#paint2_radial_31_131)"/>
<path d="M10.5 18C12.9853 18 15 15.9853 15 13.5C15 11.0147 12.9853 9 10.5 9C8.01472 9 6 11.0147 6 13.5C6 15.9853 8.01472 18 10.5 18Z" fill="white"/>
<path d="M21.5 18C23.9853 18 26 15.9853 26 13.5C26 11.0147 23.9853 9 21.5 9C19.0147 9 17 11.0147 17 13.5C17 15.9853 19.0147 18 21.5 18Z" fill="white"/>
<path d="M12 16C13.1046 16 14 15.1046 14 14C14 12.8954 13.1046 12 12 12C10.8954 12 10 12.8954 10 14C10 15.1046 10.8954 16 12 16Z" fill="url(#paint3_linear_31_131)"/>
<path d="M20 16C21.1046 16 22 15.1046 22 14C22 12.8954 21.1046 12 20 12C18.8954 12 18 12.8954 18 14C18 15.1046 18.8954 16 20 16Z" fill="url(#paint4_linear_31_131)"/>
<path d="M29.8728 15.9989C29.8728 19.8401 28.7142 23.3073 26.4068 25.8129C24.101 28.3168 20.6366 29.8728 15.9989 29.8728C11.3612 29.8728 7.89681 28.3168 5.59097 25.8129C3.28359 23.3073 2.125 19.8401 2.125 15.9989C2.125 12.1576 3.28359 8.69043 5.59097 6.18485C7.89681 3.68096 11.3612 2.125 15.9989 2.125C20.6366 2.125 24.101 3.68096 26.4068 6.18485C28.7142 8.69043 29.8728 12.1576 29.8728 15.9989Z" fill="url(#paint5_linear_31_131)" stroke="url(#paint6_radial_31_131)" stroke-width="0.25"/>
<rect x="9" y="19" width="14" height="6" rx="3" fill="#3A3E67"/>
<path fill-rule="evenodd" clip-rule="evenodd" d="M20 19H12C10.9335 19 9.99695 19.5565 9.46497 20.395L9.65808 20.9743C9.86225 21.5869 10.4355 22 11.0811 22H20.9188C21.5645 22 22.1377 21.5869 22.3419 20.9743L22.535 20.395C22.003 19.5565 21.0665 19 20 19Z" fill="url(#paint7_linear_31_131)"/>
<path fill-rule="evenodd" clip-rule="evenodd" d="M12 25H20C20.2632 25 20.5184 24.9661 20.7616 24.9025C21.2482 24.7175 21.6188 24.2857 21.7086 23.7465L21.9026 22.5822C21.9534 22.2774 21.7183 22 21.4094 22H10.5898C10.2809 22 10.0458 22.2775 10.0967 22.5822L10.2908 23.7467C10.3806 24.2853 10.7506 24.7168 11.2365 24.902C11.4803 24.9659 11.7362 25 12 25Z" fill="url(#paint8_linear_31_131)"/>
<path d="M10.5 5.5C10.5 5.5 10 8.5 6.5 8.5" stroke="url(#paint9_linear_31_131)" stroke-width="1.25" stroke-linecap="round" stroke-linejoin="round"/>
<path d="M10.5 5.5C10.5 5.5 10 8.5 6.5 8.5" stroke="url(#paint10_radial_31_131)" stroke-width="1.25" stroke-linecap="round" stroke-linejoin="round"/>
<path d="M21.5 5.5C21.5 5.5 22 8.5 25.5 8.5" stroke="url(#paint11_radial_31_131)" stroke-width="1.25" stroke-linecap="round" stroke-linejoin="round"/>
<defs>
<filter id="filter0_i_31_131" x="2" y="2" width="28.9978" height="31.5" filterUnits="userSpaceOnUse" color-interpolation-filters="sRGB">
<feFlood flood-opacity="0" result="BackgroundImageFix"/>
<feBlend mode="normal" in="SourceGraphic" in2="BackgroundImageFix" result="shape"/>
<feColorMatrix in="SourceAlpha" type="matrix" values="0 0 0 0 0 0 0 0 0 0 0 0 0 0 0 0 0 0 127 0" result="hardAlpha"/>
<feOffset dx="1" dy="2"/>
<feGaussianBlur stdDeviation="1.25"/>
<feComposite in2="hardAlpha" operator="arithmetic" k2="-1" k3="1"/>
<feColorMatrix type="matrix" values="0 0 0 0 0 0 0 0 0 0 0 0 0 0 0 0 0 0 0.16 0"/>
<feBlend mode="normal" in2="shape" result="effect1_innerShadow_31_131"/>
</filter>
<radialGradient id="paint0_radial_31_131" cx="0" cy="0" r="1" gradientUnits="userSpaceOnUse" gradientTransform="translate(26.5 10.5) rotate(136.548) scale(26.1725 40.9348)">
<stop stop-color="#BCDFFF"/>
<stop offset="0.457009" stop-color="#BDB5FF"/>
<stop offset="1" stop-color="#AE89FF"/>
</radialGradient>
<radialGradient id="paint1_radial_31_131" cx="0" cy="0" r="1" gradientUnits="userSpaceOnUse" gradientTransform="translate(11.5 12) rotate(132.51) scale(8.13941 4.21269)">
<stop offset="0.309386" stop-color="#765FD7"/>
<stop offset="1" stop-color="#765FD7" stop-opacity="0"/>
</radialGradient>
<radialGradient id="paint2_radial_31_131" cx="0" cy="0" r="1" gradientUnits="userSpaceOnUse" gradientTransform="translate(21.75 12.8) rotate(132.51) scale(7.32547 3.79142)">
<stop offset="0.0533088" stop-color="#765FD7"/>
<stop offset="1" stop-color="#765FD7" stop-opacity="0"/>
</radialGradient>
<linearGradient id="paint3_linear_31_131" x1="20.6154" y1="12" x2="19.9265" y2="16.0302" gradientUnits="userSpaceOnUse">
<stop stop-color="#553B3E"/>
<stop offset="1" stop-color="#3D2432"/>
</linearGradient>
<linearGradient id="paint4_linear_31_131" x1="20.6154" y1="12" x2="19.9265" y2="16.0302" gradientUnits="userSpaceOnUse">
<stop stop-color="#553B3E"/>
<stop offset="1" stop-color="#3D2432"/>
</linearGradient>
<linearGradient id="paint5_linear_31_131" x1="15.9989" y1="2" x2="15.9989" y2="11" gradientUnits="userSpaceOnUse">
<stop stop-color="#5DA0FF"/>
<stop offset="1" stop-color="#5DA0FF" stop-opacity="0"/>
</linearGradient>
<radialGradient id="paint6_radial_31_131" cx="0" cy="0" r="1" gradientUnits="userSpaceOnUse" gradientTransform="translate(15.9989 28.5) rotate(-90) scale(15.5)">
<stop stop-color="#F4BCFF"/>
<stop offset="1" stop-color="#F4BCFF" stop-opacity="0"/>
</radialGradient>
<linearGradient id="paint7_linear_31_131" x1="17.8671" y1="21" x2="17.8671" y2="22" gradientUnits="userSpaceOnUse">
<stop stop-color="#FFF2FF"/>
<stop offset="0.717436" stop-color="#FFECFF"/>
<stop offset="0.988281" stop-color="#383B64"/>
</linearGradient>
<linearGradient id="paint8_linear_31_131" x1="17.9714" y1="22" x2="17.9714" y2="27" gradientUnits="userSpaceOnUse">
<stop stop-color="#FFF7FF"/>
<stop offset="1" stop-color="#FFE1FF"/>
</linearGradient>
<linearGradient id="paint9_linear_31_131" x1="9.5" y1="5" x2="9.5" y2="6.5" gradientUnits="userSpaceOnUse">
<stop offset="0.0299084" stop-color="#524049"/>
<stop offset="1" stop-color="#4A2C42"/>
</linearGradient>
<radialGradient id="paint10_radial_31_131" cx="0" cy="0" r="1" gradientUnits="userSpaceOnUse" gradientTransform="translate(7 5) rotate(54.4623) scale(4.30116)">
<stop offset="0.541667" stop-color="#493032"/>
<stop offset="0.806723" stop-color="#5E445A"/>
<stop offset="0.955326" stop-color="#4A2C42"/>
</radialGradient>
<radialGradient id="paint11_radial_31_131" cx="0" cy="0" r="1" gradientUnits="userSpaceOnUse" gradientTransform="translate(25 5) rotate(125.538) scale(4.30116)">
<stop stop-color="#C2B4B5"/>
<stop offset="0.887405" stop-color="#462B45"/>
<stop offset="1" stop-color="#4A2C42"/>
</radialGradient>
</defs>
</svg>

<svg width="32" height="32" fill="none" xmlns="http://www.w3.org/2000/svg"><g filter="url(#a)"><path fill-rule="evenodd" clip-rule="evenodd" d="M29.998 15.999c0 3.865-1.166 7.364-3.498 9.897V28.5L26 30h-1.5l-1.226-1.634c-1.985 1.041-4.41 1.632-7.275 1.632-1.084 0-2.105-.085-3.063-.246L12 31l-1.5.5-.5-.5-1-1v-1.494c-.38-.188-.746-.392-1.096-.612L7.5 28.5 6 29l-1-1.5v-2.18c-2-2.476-3-5.742-3-9.321C2 8.268 6.664 2 15.999 2c9.334 0 13.999 6.268 13.999 13.999Z" fill="url(#b)"/></g><circle cx="9" cy="15" r="5" fill="url(#c)"/><circle cx="19.5" cy="15.5" r="4.5" fill="url(#d)"/><path d="M10.5 18a4.5 4.5 0 1 0 0-9 4.5 4.5 0 0 0 0 9ZM21.5 18a4.5 4.5 0 1 0 0-9 4.5 4.5 0 0 0 0 9Z" fill="#fff"/><path d="M12 16a2 2 0 1 0 0-4 2 2 0 0 0 0 4Z" fill="url(#e)"/><path d="M20 16a2 2 0 1 0 0-4 2 2 0 0 0 0 4Z" fill="url(#f)"/><path d="M29.873 15.999c0 3.841-1.159 7.308-3.466 9.814-2.306 2.504-5.77 4.06-10.408 4.06s-8.102-1.556-10.408-4.06c-2.307-2.506-3.466-5.973-3.466-9.814S3.284 8.69 5.591 6.185c2.306-2.504 5.77-4.06 10.408-4.06s8.102 1.556 10.408 4.06c2.307 2.505 3.466 5.973 3.466 9.814Z" fill="url(#g)" stroke="url(#h)" stroke-width=".25"/><rect x="9" y="19" width="14" height="6" rx="3" fill="#3A3E67"/><path fill-rule="evenodd" clip-rule="evenodd" d="M20 19h-8a2.998 2.998 0 0 0-2.535 1.395l.193.58A1.5 1.5 0 0 0 11.081 22h9.838a1.5 1.5 0 0 0 1.423-1.026l.193-.579A2.998 2.998 0 0 0 20 19Z" fill="url(#i)"/><path fill-rule="evenodd" clip-rule="evenodd" d="M12 25h8c.263 0 .518-.034.762-.098a1.5 1.5 0 0 0 .947-1.155l.194-1.165a.5.5 0 0 0-.494-.582H10.59a.5.5 0 0 0-.492.582l.194 1.165c.09.538.46.97.945 1.155.244.064.5.098.764.098Z" fill="url(#j)"/><path d="M10.5 5.5s-.5 3-4 3" stroke="url(#k)" stroke-width="1.25" stroke-linecap="round" stroke-linejoin="round"/><path d="M10.5 5.5s-.5 3-4 3" stroke="url(#l)" stroke-width="1.25" stroke-linecap="round" stroke-linejoin="round"/><path d="M21.5 5.5s.5 3 4 3" stroke="url(#m)" stroke-width="1.25" stroke-linecap="round" stroke-linejoin="round"/><defs><radialGradient id="b" cx="0" cy="0" r="1" gradientUnits="userSpaceOnUse" gradientTransform="matrix(-18.99995 18.00005 -28.15277 -29.71665 26.5 10.5)"><stop stop-color="#BCDFFF"/><stop offset=".457" stop-color="#BDB5FF"/><stop offset="1" stop-color="#AE89FF"/></radialGradient><radialGradient id="c" cx="0" cy="0" r="1" gradientUnits="userSpaceOnUse" gradientTransform="matrix(-5.49995 6.00004 -3.10542 -2.8466 11.5 12)"><stop offset=".309" stop-color="#765FD7"/><stop offset="1" stop-color="#765FD7" stop-opacity="0"/></radialGradient><radialGradient id="d" cx="0" cy="0" r="1" gradientUnits="userSpaceOnUse" gradientTransform="matrix(-4.94996 5.40004 -2.79488 -2.56193 21.75 12.8)"><stop offset=".053" stop-color="#765FD7"/><stop offset="1" stop-color="#765FD7" stop-opacity="0"/></radialGradient><radialGradient id="h" cx="0" cy="0" r="1" gradientUnits="userSpaceOnUse" gradientTransform="rotate(-90 22.25 6.25) scale(15.5)"><stop stop-color="#F4BCFF"/><stop offset="1" stop-color="#F4BCFF" stop-opacity="0"/></radialGradient><radialGradient id="l" cx="0" cy="0" r="1" gradientUnits="userSpaceOnUse" gradientTransform="matrix(2.5 3.5 -3.5 2.5 7 5)"><stop offset=".542" stop-color="#493032"/><stop offset=".807" stop-color="#5E445A"/><stop offset=".955" stop-color="#4A2C42"/></radialGradient><radialGradient id="m" cx="0" cy="0" r="1" gradientUnits="userSpaceOnUse" gradientTransform="rotate(125.538 11.213 8.933) scale(4.30116)"><stop stop-color="#C2B4B5"/><stop offset=".887" stop-color="#462B45"/><stop offset="1" stop-color="#4A2C42"/></radialGradient><linearGradient id="e" x1="20.615" y1="12" x2="19.927" y2="16.03" gradientUnits="userSpaceOnUse"><stop stop-color="#553B3E"/><stop offset="1" stop-color="#3D2432"/></linearGradient><linearGradient id="f" x1="20.615" y1="12" x2="19.927" y2="16.03" gradientUnits="userSpaceOnUse"><stop stop-color="#553B3E"/><stop offset="1" stop-color="#3D2432"/></linearGradient><linearGradient id="g" x1="15.999" y1="2" x2="15.999" y2="11" gradientUnits="userSpaceOnUse"><stop stop-color="#5DA0FF"/><stop offset="1" stop-color="#5DA0FF" stop-opacity="0"/></linearGradient><linearGradient id="i" x1="17.867" y1="21" x2="17.867" y2="22" gradientUnits="userSpaceOnUse"><stop stop-color="#FFF2FF"/><stop offset=".717" stop-color="#FFECFF"/><stop offset=".988" stop-color="#383B64"/></linearGradient><linearGradient id="j" x1="17.971" y1="22" x2="17.971" y2="27" gradientUnits="userSpaceOnUse"><stop stop-color="#FFF7FF"/><stop offset="1" stop-color="#FFE1FF"/></linearGradient><linearGradient id="k" x1="9.5" y1="5" x2="9.5" y2="6.5" gradientUnits="userSpaceOnUse"><stop offset=".03" stop-color="#524049"/><stop offset="1" stop-color="#4A2C42"/></linearGradient><filter id="a" x="2" y="2" width="28.998" height="31.5" filterUnits="userSpaceOnUse" color-interpolation-filters="sRGB"><feFlood flood-opacity="0" result="BackgroundImageFix"/><feBlend in="SourceGraphic" in2="BackgroundImageFix" result="shape"/><feColorMatrix in="SourceAlpha" values="0 0 0 0 0 0 0 0 0 0 0 0 0 0 0 0 0 0 127 0" result="hardAlpha"/><feOffset dx="1" dy="2"/><feGaussianBlur stdDeviation="1.25"/><feComposite in2="hardAlpha" operator="arithmetic" k2="-1" k3="1"/><feColorMatrix values="0 0 0 0 0 0 0 0 0 0 0 0 0 0 0 0 0 0 0.16 0"/><feBlend in2="shape" result="effect1_innerShadow_31_131"/></filter></defs></svg>
